X:21
T:Fairies'
Z: id:dc-hornpipe-20
M:C|
L:1/8
K:G Major
(3DEF|GFGA BdcB|AGAB G2Bc|dgfg edcB|cedB A2Bc|!
dggf g2fe|dedc B2AG|ABcA dcAF|G2GF G2:|!
Bc|dggf g2fe|dedc B2AG|ABcA edcB|Add^c d2B=c|!
dggf g2fe|dedc B2AG|ABcA dcAF|G2GF G2:|!

